X:18401
T:Waltz for Earl (Once a Year Is Not Enough)
S:email, 10/97
M:3/4
L:1/8
C:David Marcus 10-10-97
R:Waltz
N:for Earl Gaddis
K:D
(3cde |: "1"f2 e2 d2 | c2 A3 A | Bd3 G2 | A3 GFE |
"5"D2 G2 F2 | E2 A3 B | A3 G FG | E4  (3FGA |
"9"B2 A2 G2 | F2 B,2 d>c | de fe cA | B3 def |
"13"g2 f2 e2  | d2 A3 A  |1 B d3 f2 | e4 (3cde :|
|2 B d3 c2 | d2 z.d.d.c ||
"19"B2 F2 B2 | B2 G2 B2 | BAGF DE | F2 z.F.B.d |
"23"c2 F2 cd | c2 G2 cd  | fedc Bc | dcAFBd |
"27"B2 F2 (3Bcd | B2 G2 Bd | cBAFGA | B3 cdf |
"31" g2 f2 e2 | d2 A3 A  |1 Bc de fg | e2 z.d.d.c :|
|2 B d3 {ed}c2 | d4 (3cde :||
|"3"last time only" Bc de fa | d'6 ||


